icons/delete-bin.svg

<svg width="24" height="24" viewBox="0 0 24 24" fill="none" xmlns="http://www.w3.org/2000/svg">
<path fill-rule="evenodd" clip-rule="evenodd" d="M7 3C7 2.44772 7.44772 2 8 2H16C16.5523 2 17 2.44772 17 3V6H21C21.5523 6 22 6.44772 22 7C22 7.55228 21.5523 8 21 8H20V21C20 21.5523 19.5523 22 19 22H5C4.44772 22 4 21.5523 4 21V8H3C2.44772 8 2 7.55228 2 7C2 6.44772 2.44772 6 3 6H7V3ZM9 6H15V4H9V6ZM6 8V20H18V8H6ZM10 11C10.5523 11 11 11.4477 11 12V16C11 16.5523 10.5523 17 10 17C9.44772 17 9 16.5523 9 16V12C9 11.4477 9.44772 11 10 11ZM14 11C14.5523 11 15 11.4477 15 12V16C15 16.5523 14.5523 17 14 17C13.4477 17 13 16.5523 13 16V12C13 11.4477 13.4477 11 14 11Z" fill="black"/>
</svg>

<svg
  width="24"
  height="24"
  viewBox="0 0 24 24"
  xmlns="http://www.w3.org/2000/svg"
>
  <path
    fill-rule="evenodd"
    clip-rule="evenodd"
    d="M7 3a1 1 0 0 1 1-1h8a1 1 0 0 1 1 1v3h4a1 1 0 1 1 0 2h-1v13a1 1 0 0 1-1 1H5a1 1 0 0 1-1-1V8H3a1 1 0 0 1 0-2h4V3zm2 3h6V4H9v2zM6 8v12h12V8H6zm4 3a1 1 0 0 1 1 1v4a1 1 0 1 1-2 0v-4a1 1 0 0 1 1-1zm4 0a1 1 0 0 1 1 1v4a1 1 0 1 1-2 0v-4a1 1 0 0 1 1-1z"
  />
</svg>
